src/main/resources/icons/SpringBootCloudIcons/icons/springCloud.svg

<svg xmlns="http://www.w3.org/2000/svg" width="16" height="16" viewBox="0 0 16 16">
  <g fill="none" fill-rule="evenodd">
    <path fill="#62B543" fill-opacity=".7" d="M6.08390331,14.2591582 C5.5031669,14.2421016 4.95033039,14.2318466 4.44717245,14.2546012 C4.44717245,14.2546012 3.94283089,14.2832335 3.43439732,14.3670851 C3.43439732,14.3670851 3.62672229,14.2852786 3.87224354,14.2004045 C4.74603929,13.8983889 5.41870094,13.7017784 6.00062823,13.5240126 C6.00021011,13.5437363 6,13.5635106 6,13.5833333 C6,13.8164666 6.02911543,14.0428892 6.08390331,14.2591582 Z M12.0009237,9.03620781 C12.5186169,8.19835811 12.8943316,7.29597572 13.0537151,6.3817562 C12.7338433,7.31840304 12.1737922,8.2068956 11.4737277,9.00009863 C10.1602168,9.00996319 9.02120886,9.75894565 8.45208333,10.8516667 C7.53526999,10.9491352 6.75407616,11.4979941 6.33314693,12.2709079 C4.67188537,12.7748534 2.50243959,13.2066068 2.50243959,13.2074791 L2.38172498,13.1430565 C0.354128707,12.1572892 0.297863422,7.76939754 3.97863607,6.35516911 C5.59293826,5.73446293 7.13665308,6.07600472 8.88087692,5.65981457 C10.7417233,5.21805992 12.8961723,3.81917019 13.7718647,2 C14.6054456,4.4693572 15.5802387,8.12013995 14.5678415,10.8909058 C14.0742943,9.91022431 13.1266001,9.2004658 12.0009237,9.03620781 Z"/>
    <path fill="#9AA7B0" d="M14.25625,12.265 C14.00125,10.97125 12.865,10 11.5,10 C10.41625,10 9.475,10.615 9.00625,11.515 C7.8775,11.635 7,12.59125 7,13.75 C7,14.99125 8.00875,16 9.25,16 L14.125,16 C15.16,16 16,15.16 16,14.125 C16,13.135 15.23125,12.3325 14.25625,12.265 Z"/>
  </g>
</svg>

<svg xmlns="http://www.w3.org/2000/svg" width="16" height="16" viewBox="0 0 16 16"><rect id="frame" width="16" height="16" fill="none"/><g fill="none" fill-rule="evenodd"><path fill="#62B543" fill-opacity=".7" d="M6.084 14.26a22.531 22.531 0 0 0-1.637-.005s-.504.028-1.013.112c0 0 .193-.082.438-.167.874-.302 1.547-.498 2.129-.676a2.799 2.799 0 0 0 .083.735zM12 9.035c.518-.838.893-1.74 1.053-2.654-.32.936-.88 1.825-1.58 2.618a3.436 3.436 0 0 0-3.022 1.852 2.746 2.746 0 0 0-2.119 1.419c-1.661.504-3.83.936-3.83.936l-.121-.064C.354 12.157.298 7.77 3.979 6.355c1.614-.62 3.158-.279 4.902-.695 1.86-.442 4.015-1.84 4.89-3.66.834 2.47 1.81 6.12.797 8.89A3.433 3.433 0 0 0 12 9.037z"/><path fill="#9AA7B0" d="M14.256 12.265a2.809 2.809 0 0 0-5.25-.75A2.248 2.248 0 0 0 9.25 16h4.875C15.16 16 16 15.16 16 14.125c0-.99-.769-1.793-1.744-1.86z"/></g></svg>
